src/assets/DetailTopBoxesSvg2.svg

<svg width="39" height="46" viewBox="0 0 39 46" fill="none" xmlns="http://www.w3.org/2000/svg">
<path d="M1.08497 37.375H19.4317C19.6168 37.375 19.802 37.2968 19.933 37.1634L26.988 29.9782C27.119 29.8448 27.1958 29.6654 27.1958 29.4676V0.7176C27.1958 0.322 26.8796 0 26.4912 0H1.08497C0.696537 0 0.380371 0.322 0.380371 0.7176V36.6528C0.380371 37.0484 0.696537 37.3704 1.08497 37.3704V37.375ZM20.1408 34.9186V30.1852H24.7884L20.1408 34.9186ZM1.79409 1.4398H25.7911V28.7546H19.4407C19.0523 28.7546 18.7361 29.0766 18.7361 29.4722V35.9398H1.79409V1.4398ZM37.7829 0H29.3141C28.9257 0 28.6095 0.322 28.6095 0.7176V36.6528C28.6095 37.0484 28.9257 37.3704 29.3141 37.3704H37.7829C38.1713 37.3704 38.4875 37.0484 38.4875 36.6528V0.7176C38.492 0.322 38.1758 0 37.7829 0ZM37.0783 1.4398V32.3472H35.5471C35.258 31.51 34.4721 30.912 33.5507 30.912C32.6293 30.912 31.848 31.51 31.5544 32.3472H30.0232V28.0324H31.4324C31.8209 28.0324 32.137 27.7104 32.137 27.3148C32.137 26.9192 31.8209 26.5972 31.4324 26.5972H30.0232V23.7222H32.1415C32.53 23.7222 32.8461 23.4002 32.8461 23.0046C32.8461 22.609 32.53 22.287 32.1415 22.287H30.0232V19.412H31.4324C31.8209 19.412 32.137 19.09 32.137 18.6944C32.137 18.2988 31.8209 17.9768 31.4324 17.9768H30.0232V15.1018H32.1415C32.53 15.1018 32.8461 14.7798 32.8461 14.3842C32.8461 13.9886 32.53 13.6666 32.1415 13.6666H30.0232V10.7916H31.4324C31.8209 10.7916 32.137 10.4696 32.137 10.074C32.137 9.6784 31.8209 9.3564 31.4324 9.3564H30.0232V6.4814H32.1415C32.53 6.4814 32.8461 6.1594 32.8461 5.7638C32.8461 5.3682 32.53 5.0462 32.1415 5.0462H30.0232V1.4398H37.0783ZM37.0783 35.9398H30.0232V33.7824H32.1415C32.53 33.7824 32.8461 33.4604 32.8461 33.0648C32.8461 32.6692 33.1623 32.3472 33.5507 32.3472C33.9392 32.3472 34.2553 32.6692 34.2553 33.0648C34.2553 33.4604 34.5715 33.7824 34.9599 33.7824H37.0783V35.9398ZM38.1352 41.7818L33.1939 38.9068C33.0765 38.8378 32.9274 38.8102 32.8461 38.8102H3.90788C1.9612 38.8148 0.380371 40.4248 0.380371 42.4074C0.380371 44.39 1.9612 46 3.90788 46H32.8461C32.9636 46 33.1036 45.9586 33.1939 45.908L38.1352 43.033C38.3565 42.9042 38.492 42.665 38.492 42.4074C38.492 42.1498 38.3565 41.9106 38.1352 41.7818ZM33.0358 44.344L31.6086 42.4074L33.0358 40.4708L34.978 41.6024C34.978 41.63 34.9599 41.6576 34.9599 41.6898V43.125C34.9599 43.1572 34.9735 43.1802 34.978 43.2124L33.0358 44.344ZM30.1632 42.8398L31.4324 44.5648H10.2628V40.25H31.4369L30.1678 41.975C29.9781 42.228 29.9781 42.5822 30.1678 42.8398H30.1632ZM1.79409 42.4074C1.79409 41.216 2.74259 40.25 3.9124 40.25H6.03072V44.5648H3.9124C2.74259 44.5648 1.79409 43.5988 1.79409 42.4074ZM7.43991 44.5648V40.25H8.84911V44.5648H7.43991ZM8.14451 11.684V12.2176C8.14451 12.3096 8.16258 12.397 8.1942 12.4844L9.5492 15.939C9.52661 17.6318 9.02978 19.2694 8.10386 20.6816L5.43452 24.7572C5.31257 24.9412 5.28095 25.1712 5.35322 25.3828C5.49775 25.8244 6.58627 28.0278 13.7858 28.0278C20.9854 28.0278 22.0739 25.8244 22.2184 25.3828C22.2862 25.1712 22.2591 24.9412 22.1371 24.7572L19.4678 20.6816C18.5419 19.2694 18.0496 17.6318 18.0225 15.939L19.3775 12.4844C19.4091 12.4016 19.4271 12.3096 19.4271 12.2176V11.684C19.4271 10.3132 18.5328 9.1632 17.3088 8.7768V7.1898C17.3088 6.7942 16.9927 6.4722 16.6042 6.4722C16.2158 6.4722 15.8996 6.7942 15.8996 7.1898V8.6802C15.1002 8.8228 14.382 9.2874 13.9213 9.9912L13.7813 10.2074L13.6413 9.9912C13.1806 9.2874 12.467 8.8228 11.663 8.6802V7.1898C11.663 6.7942 11.3468 6.4722 10.9584 6.4722C10.57 6.4722 10.2538 6.7942 10.2538 7.1898V8.7768C9.02978 9.1632 8.13548 10.3132 8.13548 11.684H8.14451ZM16.8391 17.9676H10.7371C10.8364 17.4938 10.9087 17.0154 10.9403 16.5324H16.6358C16.6675 17.0154 16.7397 17.4984 16.8391 17.9676ZM20.6918 25.139C20.4208 25.3828 19.802 25.7876 18.5374 26.1096C18.5283 26.1004 18.5283 26.0912 18.5193 26.0866C18.5012 26.0682 16.5274 24.0258 15.8816 21.39C15.7867 21.0036 15.4028 20.769 15.0279 20.8656C14.6485 20.9622 14.4182 21.3532 14.513 21.735C15.0234 23.8096 16.1977 25.5116 16.9204 26.4086C16.0667 26.519 15.0324 26.588 13.7858 26.588C12.5392 26.588 11.5049 26.519 10.6467 26.4086C11.3694 25.5116 12.5483 23.805 13.0586 21.7304C13.1535 21.344 12.9231 20.9576 12.5437 20.861C12.1643 20.7644 11.7804 20.999 11.6901 21.3854C11.0442 24.0212 9.07043 26.0636 9.05236 26.082C9.04333 26.0912 9.03881 26.105 9.0343 26.1142C7.7606 25.7922 7.15085 25.3828 6.88437 25.139L9.28271 21.4774C9.7118 20.8242 10.0551 20.1296 10.3215 19.4074H17.2591C17.5256 20.1296 17.8734 20.8288 18.298 21.4774L20.6918 25.139ZM9.55371 11.684C9.55371 10.787 10.2673 10.0602 11.1481 10.0602C11.6811 10.0602 12.1779 10.3316 12.4715 10.7824L13.1987 11.8956C13.4606 12.2958 14.111 12.2958 14.373 11.8956L15.1002 10.7824C15.3983 10.3316 15.8906 10.0602 16.4236 10.0602C17.3043 10.0602 18.0179 10.787 18.0179 11.684V12.0796L16.8346 15.0926H10.7326L9.5492 12.0796V11.684H9.55371ZM3.90788 4.3148C3.90788 3.9192 4.22405 3.5972 4.61248 3.5972H6.02168C6.41012 3.5972 6.72628 3.9192 6.72628 4.3148C6.72628 4.7104 6.41012 5.0324 6.02168 5.0324H4.61248C4.22405 5.0324 3.90788 4.7104 3.90788 4.3148ZM3.90788 7.1898C3.90788 6.7942 4.22405 6.4722 4.61248 6.4722H7.4354C7.82383 6.4722 8.14 6.7942 8.14 7.1898C8.14 7.5854 7.82383 7.9074 7.4354 7.9074H4.61248C4.22405 7.9074 3.90788 7.5854 3.90788 7.1898ZM8.14451 33.0648C8.14451 33.4604 7.82835 33.7824 7.43991 33.7824H4.617C4.22857 33.7824 3.9124 33.4604 3.9124 33.0648C3.9124 32.6692 4.22857 32.3472 4.617 32.3472H7.43991C7.82835 32.3472 8.14451 32.6692 8.14451 33.0648ZM11.672 30.1898C11.672 30.5854 11.3559 30.9074 10.9674 30.9074H4.617C4.22857 30.9074 3.9124 30.5854 3.9124 30.1898C3.9124 29.7942 4.22857 29.4722 4.617 29.4722H10.9674C11.3559 29.4722 11.672 29.7942 11.672 30.1898Z" fill="#F6AE24"/>
</svg>

<svg xmlns="http://www.w3.org/2000/svg" width="39" height="46" fill="none"><path fill="#F6AE24" d="M1.085 37.375h18.347c.185 0 .37-.078.501-.212l7.055-7.185a.72.72 0 0 0 .208-.51V.718A.71.71 0 0 0 26.49 0H1.085A.71.71 0 0 0 .38.718v35.935c0 .395.317.717.705.717zm19.056-2.456v-4.734h4.647zM1.794 1.439h23.997v27.316h-6.35a.71.71 0 0 0-.705.717v6.468H1.794zM37.783 0h-8.469a.71.71 0 0 0-.704.718v35.935c0 .395.316.717.704.717h8.469a.71.71 0 0 0 .704-.717V.718A.706.706 0 0 0 37.784 0m-.705 1.44v30.907h-1.53a2.12 2.12 0 0 0-1.997-1.435c-.922 0-1.703.598-1.997 1.435h-1.53v-4.315h1.408a.71.71 0 0 0 .705-.717.71.71 0 0 0-.705-.718h-1.409v-2.875h2.119a.71.71 0 0 0 .704-.717.71.71 0 0 0-.704-.718h-2.119v-2.875h1.41a.71.71 0 0 0 .704-.718.71.71 0 0 0-.705-.717h-1.409v-2.875h2.119a.71.71 0 0 0 .704-.718.71.71 0 0 0-.704-.717h-2.119v-2.875h1.41a.71.71 0 0 0 .704-.718.71.71 0 0 0-.705-.718h-1.409V6.481h2.119a.71.71 0 0 0 .704-.717.71.71 0 0 0-.704-.718h-2.119V1.44zm0 34.5h-7.055v-2.158h2.119a.71.71 0 0 0 .704-.717c0-.396.316-.718.705-.718s.704.322.704.718.316.717.705.717h2.118zm1.057 5.842-4.941-2.875a.8.8 0 0 0-.348-.097H3.908C1.96 38.815.38 40.425.38 42.407.38 44.39 1.961 46 3.908 46h28.938a.8.8 0 0 0 .348-.092l4.941-2.875a.72.72 0 0 0 .357-.626.72.72 0 0 0-.357-.625m-5.1 2.562-1.426-1.937 1.427-1.936 1.942 1.131c0 .028-.018.056-.018.088v1.435c0 .032.014.055.018.087zm-2.872-1.504 1.27 1.725h-21.17V40.25h21.174l-1.27 1.725a.73.73 0 0 0 0 .865zm-28.369-.433c0-1.191.949-2.157 2.118-2.157h2.119v4.315H3.912c-1.17 0-2.118-.966-2.118-2.158m5.646 2.158V40.25h1.41v4.315zm.705-32.881v.534q.001.137.05.266l1.354 3.455a8.84 8.84 0 0 1-1.445 4.743l-2.67 4.075a.71.71 0 0 0-.08.626c.144.441 1.232 2.645 8.432 2.645s8.288-2.204 8.432-2.645a.73.73 0 0 0-.08-.626l-2.67-4.075a8.9 8.9 0 0 1-1.445-4.743l1.355-3.455a.8.8 0 0 0 .05-.266v-.534c0-1.37-.895-2.52-2.12-2.907V7.19a.71.71 0 0 0-.704-.718.71.71 0 0 0-.704.718v1.49a3 3 0 0 0-1.979 1.311l-.14.216-.14-.216a2.98 2.98 0 0 0-1.978-1.31V7.19a.71.71 0 0 0-.705-.718.71.71 0 0 0-.704.718v1.587a3.04 3.04 0 0 0-2.119 2.907zm8.694 6.284h-6.102c.1-.474.172-.953.203-1.436h5.696c.032.483.104.966.203 1.436m3.853 7.171c-.271.244-.89.649-2.155.97-.009-.009-.009-.018-.018-.022-.018-.019-1.992-2.061-2.637-4.697a.704.704 0 0 0-.854-.524.72.72 0 0 0-.515.869c.51 2.075 1.685 3.777 2.407 4.674-.853.11-1.888.179-3.134.179-1.247 0-2.281-.069-3.14-.18.723-.896 1.902-2.603 2.413-4.678a.717.717 0 0 0-.515-.869.7.7 0 0 0-.854.524c-.646 2.636-2.62 4.679-2.638 4.697q-.012.017-.018.032c-1.273-.322-1.883-.731-2.15-.975l2.399-3.662c.429-.653.772-1.347 1.039-2.07h6.937a10.3 10.3 0 0 0 1.039 2.07zM9.554 11.684c0-.897.713-1.624 1.594-1.624.533 0 1.03.272 1.324.722l.727 1.114c.262.4.912.4 1.174 0l.727-1.114c.298-.45.79-.722 1.324-.722.88 0 1.594.727 1.594 1.624v.396l-1.183 3.013h-6.102L9.549 12.08v-.396zm-5.646-7.37c0-.395.316-.717.704-.717h1.41c.388 0 .704.322.704.718a.71.71 0 0 1-.704.717h-1.41a.71.71 0 0 1-.704-.717m0 2.876c0-.396.316-.718.704-.718h2.823c.389 0 .705.322.705.718a.71.71 0 0 1-.705.717H4.612a.71.71 0 0 1-.704-.717m4.237 25.875a.71.71 0 0 1-.705.717H4.617a.71.71 0 0 1-.705-.717c0-.396.317-.718.705-.718H7.44c.388 0 .705.322.705.718m3.527-2.875a.71.71 0 0 1-.705.717h-6.35a.71.71 0 0 1-.705-.717c0-.396.317-.718.705-.718h6.35c.389 0 .705.322.705.718"/></svg>
